packages/icons/menus/MenuWallets.svg

<svg xmlns="http://www.w3.org/2000/svg" width="30" height="30" fill="none" viewBox="0 0 30 30">
    <path fill="#1C68F3" d="M23.75 16.8799L23.75 16.6504L24.2603 16.6504C24.3236 16.6504 24.375 16.7018 24.375 16.7651C24.375 16.8285 24.3236 16.8799 24.2603 16.8799L23.75 16.8799Z" opacity="0.8"/>
    <g filter="url(#filter0_b_1005_35809)">
        <path fill="url(#paint0_linear_1005_35809)" fill-opacity="0.3" d="M7.5 12.381C7.5 11.066 8.5035 10 9.74138 10H21.5086C22.7465 10 23.75 11.066 23.75 12.381V20.119C23.75 21.434 22.7465 22.5 21.5086 22.5H9.74138C8.5035 22.5 7.5 21.434 7.5 20.119V12.381Z"/>
    </g>
    <path fill="url(#paint1_linear_1005_35809)" d="M18.0439 15.7138C15.6524 17.0946 12.5945 16.2752 11.2138 13.8837C9.83306 11.4923 10.6524 8.4343 13.0439 7.05359C15.4354 5.67288 18.4933 6.49225 19.874 8.88372C21.2547 11.2752 20.4354 14.3331 18.0439 15.7138Z"/>
    <path fill="white" fill-rule="evenodd" d="M12.4238 11.8637L13.2408 13.2788L17.486 10.8278L17.6687 10.7224C17.9711 11.6926 17.5742 12.7769 16.6572 13.3063C15.8991 13.744 14.9902 13.6843 14.3087 13.2283L13.4859 13.7033L14.1722 14.892C14.3346 15.1733 14.6944 15.2697 14.9757 15.1073L19.0511 12.7544C19.3325 12.5919 19.4289 12.2322 19.2664 11.9508L17.5181 8.92255L12.4238 11.8637ZM14.7973 12.9462C15.2955 13.1852 15.8993 13.1822 16.414 12.8851C16.9286 12.5879 17.2331 12.0666 17.2752 11.5156L14.7973 12.9462ZM16.2566 10.1037C16.6558 9.87318 17.1566 9.97771 17.4332 10.33L16.999 10.5807C16.8659 10.4605 16.6654 10.4337 16.5017 10.5282C16.338 10.6227 16.261 10.8097 16.2986 10.9851L15.8644 11.2358C15.6976 10.8201 15.8574 10.3342 16.2566 10.1037ZM14.0774 11.3618C14.4766 11.1314 14.9773 11.2359 15.254 11.5882L14.8198 11.8389C14.6867 11.7187 14.4862 11.6919 14.3225 11.7864C14.1588 11.8809 14.0818 12.0679 14.1194 12.2433L13.6852 12.494C13.5184 12.0782 13.6782 11.5923 14.0774 11.3618ZM12.0345 10.013C11.7532 10.1755 11.6568 10.5352 11.8192 10.8166L12.1787 11.4392L17.273 8.49803L16.9135 7.87539C16.7511 7.59404 16.3913 7.49765 16.11 7.66008L12.0345 10.013Z" clip-rule="evenodd"/>
    <g filter="url(#filter1_b_1005_35809)">
        <path fill="url(#paint2_linear_1005_35809)" fill-opacity="0.3" d="M7.5 14.8684C7.5 13.5604 8.5035 12.5 9.74138 12.5H21.5086C22.7465 12.5 23.75 13.5604 23.75 14.8684V21.3816C23.75 22.6896 22.7465 23.75 21.5086 23.75H9.74138C8.5035 23.75 7.5 22.6896 7.5 21.3816V14.8684Z"/>
    </g>
    <path fill="#1C68F3" d="M24.375 16.7969L24.375 18.875C24.375 19.1511 24.1511 19.375 23.875 19.375L21.875 19.375C21.1846 19.375 20.625 18.8154 20.625 18.125C20.625 17.4346 21.1844 16.875 21.8747 16.875C22.8533 16.875 24.0789 16.875 24.2627 16.875C24.3454 16.875 24.375 16.7969 24.375 16.7969Z" opacity="0.5"/>
    <circle cx="21.875" cy="18.125" r="0.625" fill="white"/>
    <defs>
        <filter id="filter0_b_1005_35809" width="24.25" height="20.5" x="3.5" y="6" color-interpolation-filters="sRGB" filterUnits="userSpaceOnUse">
            <feFlood flood-opacity="0" result="BackgroundImageFix"/>
            <feGaussianBlur in="BackgroundImage" stdDeviation="2"/>
            <feComposite in2="SourceAlpha" operator="in" result="effect1_backgroundBlur_1005_35809"/>
            <feBlend in="SourceGraphic" in2="effect1_backgroundBlur_1005_35809" mode="normal" result="shape"/>
        </filter>
        <filter id="filter1_b_1005_35809" width="24.25" height="19.25" x="3.5" y="8.5" color-interpolation-filters="sRGB" filterUnits="userSpaceOnUse">
            <feFlood flood-opacity="0" result="BackgroundImageFix"/>
            <feGaussianBlur in="BackgroundImage" stdDeviation="2"/>
            <feComposite in2="SourceAlpha" operator="in" result="effect1_backgroundBlur_1005_35809"/>
            <feBlend in="SourceGraphic" in2="effect1_backgroundBlur_1005_35809" mode="normal" result="shape"/>
        </filter>
        <linearGradient id="paint0_linear_1005_35809" x1="7.5" x2="23.75" y1="22.5" y2="22.5" gradientUnits="userSpaceOnUse">
            <stop stop-color="#B0CFEB"/>
            <stop offset="1" stop-color="#C4E1FB"/>
        </linearGradient>
        <linearGradient id="paint1_linear_1005_35809" x1="22.374" x2="13.7138" y1="13.2138" y2="18.2138" gradientUnits="userSpaceOnUse">
            <stop stop-color="#AFC3E1"/>
            <stop offset="1" stop-color="#C3D7F5"/>
        </linearGradient>
        <linearGradient id="paint2_linear_1005_35809" x1="7.5" x2="23.75" y1="23.75" y2="23.75" gradientUnits="userSpaceOnUse">
            <stop stop-color="#B0CFEB"/>
            <stop offset="1" stop-color="#C4E1FB"/>
        </linearGradient>
    </defs>
</svg>

<svg xmlns="http://www.w3.org/2000/svg" width="30" height="30" fill="none">
    <path fill="#1C68F3" d="M23.75 16.88v-.23h.51a.115.115 0 0 1 0 .23h-.51Z" opacity=".8"/>
    <g filter="url(#MenuWallets_svg__a)">
        <path fill="url(#MenuWallets_svg__b)" fill-opacity=".3" d="M7.5 12.381C7.5 11.066 8.504 10 9.741 10H21.51c1.238 0 2.241 1.066 2.241 2.381v7.738c0 1.315-1.003 2.381-2.241 2.381H9.74c-1.237 0-2.241-1.066-2.241-2.381v-7.738Z"/>
    </g>
    <path fill="url(#MenuWallets_svg__c)" d="M18.044 15.714a5 5 0 1 1-5-8.66 5 5 0 0 1 5 8.66Z"/>
    <path fill="#fff" fill-rule="evenodd" d="m12.424 11.864.817 1.415 4.245-2.451.183-.106a2.223 2.223 0 0 1-3.36 2.506l-.823.475.686 1.189a.588.588 0 0 0 .804.215l4.075-2.353a.588.588 0 0 0 .215-.803l-1.748-3.028-5.094 2.94Zm2.373 1.082a1.73 1.73 0 0 0 2.478-1.43l-2.478 1.43Zm1.46-2.842a.915.915 0 0 1 1.176.226l-.434.25a.425.425 0 0 0-.7.405l-.435.25a.915.915 0 0 1 .393-1.131Zm-2.18 1.258c.4-.23.9-.126 1.177.226l-.434.25a.425.425 0 0 0-.7.405l-.435.251a.915.915 0 0 1 .392-1.132Zm-2.043-1.349a.588.588 0 0 0-.215.804l.36.622 5.094-2.941-.36-.623a.588.588 0 0 0-.803-.215l-4.075 2.353Z" clip-rule="evenodd"/>
    <g filter="url(#MenuWallets_svg__d)">
        <path fill="url(#MenuWallets_svg__e)" fill-opacity=".3" d="M7.5 14.868c0-1.308 1.004-2.368 2.241-2.368H21.51c1.238 0 2.241 1.06 2.241 2.368v6.514c0 1.308-1.003 2.368-2.241 2.368H9.74c-1.237 0-2.241-1.06-2.241-2.368v-6.514Z"/>
    </g>
    <path fill="#1C68F3" d="M24.375 16.797v2.078a.5.5 0 0 1-.5.5h-2a1.25 1.25 0 0 1 0-2.5h2.388c.082 0 .112-.078.112-.078Z" opacity=".5"/>
    <circle cx="21.875" cy="18.125" r=".625" fill="#fff"/>
    <defs>
        <linearGradient id="MenuWallets_svg__b" x1="7.5" x2="23.75" y1="22.5" y2="22.5" gradientUnits="userSpaceOnUse">
            <stop stop-color="#B0CFEB"/>
            <stop offset="1" stop-color="#C4E1FB"/>
        </linearGradient>
        <linearGradient id="MenuWallets_svg__c" x1="22.374" x2="13.714" y1="13.214" y2="18.214" gradientUnits="userSpaceOnUse">
            <stop stop-color="#AFC3E1"/>
            <stop offset="1" stop-color="#C3D7F5"/>
        </linearGradient>
        <linearGradient id="MenuWallets_svg__e" x1="7.5" x2="23.75" y1="23.75" y2="23.75" gradientUnits="userSpaceOnUse">
            <stop stop-color="#B0CFEB"/>
            <stop offset="1" stop-color="#C4E1FB"/>
        </linearGradient>
        <filter id="MenuWallets_svg__a" width="24.25" height="20.5" x="3.5" y="6" color-interpolation-filters="sRGB" filterUnits="userSpaceOnUse">
            <feFlood flood-opacity="0" result="BackgroundImageFix"/>
            <feGaussianBlur in="BackgroundImage" stdDeviation="2"/>
            <feComposite in2="SourceAlpha" operator="in" result="effect1_backgroundBlur_1005_35809"/>
            <feBlend in="SourceGraphic" in2="effect1_backgroundBlur_1005_35809" result="shape"/>
        </filter>
        <filter id="MenuWallets_svg__d" width="24.25" height="19.25" x="3.5" y="8.5" color-interpolation-filters="sRGB" filterUnits="userSpaceOnUse">
            <feFlood flood-opacity="0" result="BackgroundImageFix"/>
            <feGaussianBlur in="BackgroundImage" stdDeviation="2"/>
            <feComposite in2="SourceAlpha" operator="in" result="effect1_backgroundBlur_1005_35809"/>
            <feBlend in="SourceGraphic" in2="effect1_backgroundBlur_1005_35809" result="shape"/>
        </filter>
    </defs>
</svg>
